packages/icons/src/__generated__/nav/svg/nav-light-12-inactive.svg

<svg xmlns="http://www.w3.org/2000/svg" fill="#1652F0" viewBox="0 0 12 12"><path d="M5.25 1h1.5v1.5h-1.5V1ZM6 9a3 3 0 1 0 0-6 3 3 0 0 0 0 6Zm0-1.3a1.7 1.7 0 1 1 0-3.4 1.7 1.7 0 0 1 0 3.4Zm.75 3.3V9.5h-1.5V11h1.5ZM11 5.25v1.5H9.5v-1.5H11Zm-8.5 1.5v-1.5H1v1.5h1.5Zm7.566 2.255-1.06 1.06-1.061-1.06 1.06-1.06 1.06 1.06Zm-7.071-4.95 1.06-1.06-1.06-1.06-1.06 1.06 1.06 1.06Zm0 6.011-1.06-1.06 1.06-1.061 1.06 1.06-1.06 1.06Zm4.95-7.071 1.06 1.06 1.06-1.06-1.06-1.06-1.06 1.06Z"/></svg>

<svg xmlns="http://www.w3.org/2000/svg" fill="#1652F0" viewBox="0 0 12 12"><path d="M5.25 1h1.5v1.5h-1.5V1ZM6 9a3 3 0 1 0 0-6 3 3 0 0 0 0 6Zm0-1.3a1.7 1.7 0 1 1 0-3.4 1.7 1.7 0 0 1 0 3.4Zm.75 3.3V9.5h-1.5V11h1.5ZM11 5.25v1.5H9.5v-1.5H11Zm-8.5 1.5v-1.5H1v1.5h1.5ZM10.07 9 9 10.08 7.94 9l1.07-1.07L10.07 9ZM3 4.06l1.06-1.07-1.07-1.06L1.93 3 3 4.06Zm0 6.01L1.92 9 3 7.94l1.07 1.07L3 10.07ZM7.94 3l1.07 1.06 1.06-1.07L9 1.93 7.94 3Z"/></svg>
